;FLAVOR:Marlin
;TIME:6668
;Filament used: 3.84221m
;Layer height: 0.2
;MINX:92.5
;MINY:9.5
;MINZ:0.2
;MAXX:142.5
;MAXY:52.039
;MAXZ:66.4
;TARGET_MACHINE.NAME:Creality Ender-3
;Generated with Cura_SteamEngine 5.5.0
M140 S50
M105
M190 S50
M104 S200
M105
M109 S200
M82 ;absolute extrusion mode
; Ender 3 Custom Start G-code
G92 E0 ; Reset Extruder
G28 ; Home all axes
G1 Z2.0 F3000 ; Move Z Axis up little to prevent scratching of Heat Bed
G1 X0.1 Y20 Z0.3 F5000.0 ; Move to start position
G1 X0.1 Y200.0 Z0.3 F1500.0 E15 ; Draw the first line
G1 X0.4 Y200.0 Z0.3 F5000.0 ; Move to side a little
G1 X0.4 Y20 Z0.3 F1500.0 E30 ; Draw the second line
G92 E0 ; Reset Extruder
G1 Z2.0 F3000 ; Move Z Axis up little to prevent scratching of Heat Bed
G1 X5 Y20 Z0.3 F5000.0 ; Move over to prevent blob squish
G92 E0
G92 E0
G1 F2700 E-5
;LAYER_COUNT:332
;LAYER:0
M107
G0 F6000 X93.108 Y9.5 Z0.2
;TYPE:SKIRT
G1 F2700 E0
G1 F1200 X92.936 Y10.016 E0.01809
G1 X92.716 Y10.928 E0.04929
G1 X92.57 Y11.891 E0.08169
G1 X92.512 Y12.864 E0.11411
G1 X92.501 Y13.564 E0.13739
G1 X92.5 Y19.709 E0.34178
G1 X92.513 Y20.333 E0.36254
G1 X92.668 Y23.285 E0.46086
G1 X92.741 Y25.838 E0.5458
G1 X92.741 Y28.35 E0.62935
G1 X92.669 Y30.898 E0.71413
G1 X92.528 Y33.425 E0.79831
G1 X92.501 Y34.584 E0.83687
G1 X92.5 Y40.697 E1.04019
G1 X92.514 Y41.348 E1.06185
G1 X92.612 Y42.527 E1.1012
G1 X92.79 Y43.496 E1.13397
G1 X93.05 Y44.434 E1.16634
G1 X93.392 Y45.346 E1.19874
G1 X93.814 Y46.224 E1.23114
G1 X94.35 Y47.121 E1.26589
G1 X94.88 Y47.852 E1.29592
G1 X95.517 Y48.588 E1.3283
G1 X96.27 Y49.313 E1.36306
G1 X96.974 Y49.879 E1.39311
G1 X97.813 Y50.44 E1.42668
G1 X98.636 Y50.891 E1.45789
G1 X99.526 Y51.283 E1.49024
G1 X100.45 Y51.595 E1.52267
G1 X101.396 Y51.824 E1.55505
G1 X102.359 Y51.97 E1.58744
G1 X103.331 Y52.027 E1.61983
G1 X104.064 Y52.038 E1.64421
G1 X110.17 Y52.039 E1.84729
G1 X110.794 Y52.026 E1.86805
G1 X113.747 Y51.871 E1.96641
G1 X116.322 Y51.798 E2.05208
G1 X118.811 Y51.798 E2.13487
G1 X121.359 Y51.87 E2.21965
G1 X123.887 Y52.011 E2.30386
G1 X125.044 Y52.038 E2.34235
G1 X131.17 Y52.039 E2.54611
G1 X131.845 Y52.024 E2.56856
G1 X132.996 Y51.926 E2.60698
G1 X133.962 Y51.748 E2.63965
G1 X134.901 Y51.487 E2.67207
G1 X135.812 Y51.145 E2.70443
G1 X136.69 Y50.723 E2.73683
G1 X137.557 Y50.206 E2.77041
G1 X138.317 Y49.656 E2.80161
G1 X139.106 Y48.968 E2.83643
G1 X139.731 Y48.317 E2.86644
G1 X140.364 Y47.532 E2.89998
G1 X140.886 Y46.751 E2.93123
G1 X141.354 Y45.899 E2.96356
G1 X141.746 Y45.008 E2.99594
G1 X142.057 Y44.084 E3.02836
G1 X142.286 Y43.138 E3.06074
G1 X142.431 Y42.175 E3.09313
G1 X142.488 Y41.202 E3.12554
G1 X142.499 Y40.439 E3.15092
G1 X142.5 Y34.369 E3.35281
G1 X142.475 Y33.473 E3.38263
G1 X142.332 Y30.798 E3.47172
G1 X142.259 Y28.231 E3.55714
G1 X142.259 Y25.712 E3.64092
G1 X142.331 Y23.175 E3.72533
G1 X142.472 Y20.652 E3.80938
G1 X142.499 Y19.472 E3.84864
G1 X142.5 Y13.369 E4.05162
G1 X142.485 Y12.694 E4.07408
G1 X142.39 Y11.564 E4.1118
G1 X142.213 Y10.598 E4.14446
G1 X141.944 Y9.626 E4.178
G1 X141.897 Y9.5 E4.18248
G1 F2700 E-0.81752
G0 F6000 X93.529 Y9.5
G1 F2700 E4.18248
G1 F1200 X93.325 Y10.11 E4.20387
G1 X93.105 Y11.022 E4.23507
G1 X92.966 Y11.95 E4.26628
G1 X92.911 Y12.887 E4.2975
G1 X92.901 Y13.57 E4.32022
G1 X92.9 Y19.709 E4.52441
G1 X92.913 Y20.325 E4.5449
G1 X93.068 Y23.274 E4.64312
G1 X93.141 Y25.838 E4.72843
G1 X93.141 Y28.361 E4.81235
G1 X93.069 Y30.909 E4.89713
G1 X92.927 Y33.447 E4.98167
G1 X92.901 Y34.593 E5.0198
G1 X92.9 Y40.697 E5.22282
G1 X92.913 Y41.315 E5.24338
G1 X93.011 Y42.494 E5.28273
G1 X93.183 Y43.423 E5.31415
G1 X93.435 Y44.327 E5.34536
G1 X93.766 Y45.205 E5.37657
G1 X94.174 Y46.05 E5.40778
G1 X94.674 Y46.886 E5.44018
G1 X95.204 Y47.617 E5.47021
G1 X95.819 Y48.326 E5.50143
G1 X96.521 Y49.001 E5.53382
G1 X97.225 Y49.567 E5.56387
G1 X98.005 Y50.089 E5.59508
G1 X98.828 Y50.54 E5.6263
G1 X99.687 Y50.917 E5.6575
G1 X100.577 Y51.216 E5.68872
G1 X101.489 Y51.435 E5.71992
G1 X102.418 Y51.574 E5.75116
G1 X103.354 Y51.628 E5.78235
G1 X104.07 Y51.638 E5.80616
G1 X110.17 Y51.639 E6.00905
G1 X110.786 Y51.626 E6.02954
G1 X113.736 Y51.471 E6.12779
G1 X116.311 Y51.398 E6.21347
G1 X118.822 Y51.398 E6.29699
G1 X121.37 Y51.47 E6.38177
G1 X123.909 Y51.612 E6.46635
G1 X125.053 Y51.638 E6.50441
G1 X131.17 Y51.639 E6.70786
G1 X131.811 Y51.625 E6.72919
G1 X132.962 Y51.527 E6.76761
G1 X133.889 Y51.355 E6.79897
G1 X134.793 Y51.102 E6.83019
G1 X135.671 Y50.771 E6.8614
G1 X136.516 Y50.363 E6.89261
G1 X137.322 Y49.882 E6.92382
G1 X138.082 Y49.332 E6.95503
G1 X138.817 Y48.691 E6.98746
G1 X139.442 Y48.04 E7.01748
G1 X140.031 Y47.31 E7.04868
G1 X140.553 Y46.529 E7.07992
G1 X141.003 Y45.707 E7.11109
G1 X141.38 Y44.847 E7.14232
G1 X141.678 Y43.957 E7.17354
G1 X141.897 Y43.045 E7.20473
G1 X142.035 Y42.116 E7.23597
G1 X142.089 Y41.179 E7.26719
G1 X142.099 Y40.434 E7.29197
G1 X142.1 Y34.369 E7.49369
G1 X142.075 Y33.484 E7.52314
G1 X141.932 Y30.809 E7.61224
G1 X141.859 Y28.231 E7.69802
G1 X141.859 Y25.701 E7.78216
G1 X141.931 Y23.164 E7.86658
G1 X142.073 Y20.63 E7.95099
G1 X142.099 Y19.463 E7.98982
G1 X142.1 Y13.369 E8.1925
G1 X142.086 Y12.728 E8.21383
G1 X141.991 Y11.598 E8.25154
G1 X141.82 Y10.671 E8.2829
G1 X141.569 Y9.766 E8.31413
G1 X141.47 Y9.5 E8.32357
G1 F2700 E3.32357
G0 F6000 X93.951 Y9.5
G1 F2700 E8.32357
G1 F1200 X93.704 Y10.237 E8.34943
G1 X93.494 Y11.115 E8.37945
G1 X93.362 Y12.008 E8.40948
G1 X93.31 Y12.91 E8.43953
G1 X93.301 Y13.575 E8.46165
G1 X93.3 Y19.709 E8.66566
G1 X93.313 Y20.316 E8.68586
G1 X93.468 Y23.263 E8.78401
G1 X93.541 Y25.838 E8.86969
G1 X93.541 Y28.372 E8.95397
G1 X93.469 Y30.92 E9.03875
G1 X93.326 Y33.469 E9.12367
G1 X93.301 Y34.602 E9.16136
G1 X93.3 Y40.697 E9.36408
G1 X93.313 Y41.306 E9.38434
G1 X93.41 Y42.461 E9.42289
G1 X93.576 Y43.349 E9.45294
G1 X93.82 Y44.219 E9.48299
G1 X94.14 Y45.063 E9.51301
G1 X94.534 Y45.876 E9.54306
G1 X94.998 Y46.651 E9.5731
G1 X95.528 Y47.382 E9.60313
G1 X96.121 Y48.063 E9.63317
G1 X96.772 Y48.689 E9.66321
G1 X97.476 Y49.255 E9.69325
G1 X98.227 Y49.756 E9.72328
G1 X99.02 Y50.189 E9.75333
G1 X99.847 Y50.55 E9.78334
G1 X100.704 Y50.837 E9.8134
G1 X101.582 Y51.046 E9.84342
G1 X102.476 Y51.178 E9.87348
G1 X103.377 Y51.229 E9.90349
G1 X104.075 Y51.238 E9.92671
G1 X110.17 Y51.239 E10.12943
G1 X110.777 Y51.226 E10.14962
G1 X113.725 Y51.071 E10.24781
G1 X116.3 Y50.998 E10.33349
G1 X118.833 Y50.998 E10.41774
G1 X121.381 Y51.07 E10.50252
G1 X123.931 Y51.213 E10.58746
G1 X125.062 Y51.238 E10.62509
G1 X131.17 Y51.239 E10.82824
G1 X131.777 Y51.226 E10.84844
G1 X132.928 Y51.128 E10.88686
G1 X133.815 Y50.962 E10.91687
G1 X134.685 Y50.717 E10.94693
G1 X135.529 Y50.397 E10.97695
G1 X136.342 Y50.003 E11.007
G1 X137.116 Y49.539 E11.03702
G1 X137.847 Y49.008 E11.06707
G1 X138.528 Y48.414 E11.09712
G1 X139.153 Y47.763 E11.12714
G1 X139.719 Y47.059 E11.15718
G1 X140.22 Y46.307 E11.18724
G1 X140.652 Y45.515 E11.21724
G1 X141.013 Y44.687 E11.24729
G1 X141.299 Y43.83 E11.27734
G1 X141.508 Y42.952 E11.30736
G1 X141.639 Y42.058 E11.33741
G1 X141.69 Y41.156 E11.36746
G1 X141.699 Y40.429 E11.39164
G1 X141.7 Y34.369 E11.59319
G1 X141.675 Y33.495 E11.62228
G1 X141.532 Y30.82 E11.71137
G1 X141.459 Y28.231 E11.79752
G1 X141.459 Y25.69 E11.88203
G1 X141.531 Y23.153 E11.96645
G1 X141.674 Y20.608 E12.05123
G1 X141.699 Y19.454 E12.08962
G1 X141.7 Y13.369 E12.29201
G1 X141.687 Y12.762 E12.3122
G1 X141.592 Y11.632 E12.34992
G1 X141.427 Y10.744 E12.37996
G1 X141.184 Y9.874 E12.41
G1 X141.043 Y9.5 E12.4233
G1 F2700 E7.4233
G0 F6000 X132.153 Y20.692
G0 X129.798 Y20.692
G0 X111.969 Y27.389
G1 F2700 E12.4233
G1 F1200 X112.655 Y25.041 E12.50465
G1 X114.426 Y23.174 E12.59024
G1 X116.874 Y22.487 E12.67481
G1 X119.322 Y23.174 E12.75938
G1 X121.093 Y25.041 E12.84497
G1 X121.776 Y27.387 E12.92624
G1 X121.09 Y29.839 E13.01092
G1 X119.324 Y31.605 E13.09399
G1 X116.872 Y32.291 E13.17867
G1 X114.526 Y31.606 E13.25996
G1 X112.657 Y29.737 E13.34787
G1 X111.969 Y27.389 E13.42925
G0 F6000 X112.386 Y27.388
G1 F1200 X113.012 Y25.245 E13.50351
G1 X114.64 Y23.529 E13.58218
G1 X116.874 Y22.902 E13.65935
G1 X119.108 Y23.529 E13.73653
G1 X120.735 Y25.245 E13.81518
G1 X121.36 Y27.389 E13.88945
G1 X120.733 Y29.63 E13.96685
G1 X119.115 Y31.248 E14.04296
G1 X116.875 Y31.875 E14.12033
G1 X114.737 Y31.251 E14.1944
G1 X113.012 Y29.526 E14.27554
G1 X112.386 Y27.388 E14.34964
G0 F6000 X112.803 Y27.387
G1 F1200 X113.369 Y25.451 E14.41672
G1 X114.855 Y23.884 E14.48855
G1 X116.874 Y23.318 E14.55829
G1 X118.893 Y23.884 E14.62803
G1 X120.379 Y25.451 E14.69986
G1 X120.944 Y27.393 E14.76713
G1 X120.377 Y29.42 E14.83714
G1 X118.905 Y30.892 E14.90637
G1 X116.878 Y31.459 E14.97638
G1 X114.948 Y30.896 E15.04325
G1 X113.367 Y29.315 E15.11761
G1 X112.803 Y27.387 E15.18443
G0 F6000 X113.22 Y27.389
G1 F1200 X113.726 Y25.655 E15.2445
G1 X115.069 Y24.24 E15.30939
G1 X116.874 Y23.733 E15.37175
G1 X118.679 Y24.24 E15.43411
G1 X120.022 Y25.655 E15.49899
G1 X120.528 Y27.395 E15.55926
G1 X120.02 Y29.211 E15.62198
G1 X118.696 Y30.535 E15.68426
G1 X116.881 Y31.043 E15.74695
G1 X115.159 Y30.541 E15.8066
G1 X113.722 Y29.104 E15.8742
G1 X113.22 Y27.389 E15.93363
G0 F6000 X113.636 Y27.39
G1 F1200 X114.083 Y25.861 E15.98661
G1 X115.284 Y24.595 E16.04465
G1 X116.874 Y24.148 E16.09959
G1 X118.464 Y24.595 E16.15452
G1 X119.665 Y25.861 E16.21256
G1 X120.112 Y27.397 E16.26577
G1 X119.663 Y29.002 E16.3212
G1 X118.487 Y30.178 E16.37652
G1 X116.883 Y30.627 E16.43192
G1 X115.369 Y30.185 E16.48437
G1 X114.076 Y28.892 E16.54519
G1 X113.636 Y27.39 E16.59725
G0 F6000 X114.053 Y27.389
G1 F1200 X114.44 Y26.065 E16.64313
G1 X115.498 Y24.95 E16.69425
G1 X116.874 Y24.564 E16.74178
G1 X118.25 Y24.95 E16.78932
G1 X119.308 Y26.065 E16.84044
G1 X119.696 Y27.398 E16.88661
G1 X119.305 Y28.794 E16.93483
G1 X118.279 Y29.82 E16.98309
G1 X116.884 Y30.211 E17.03128
G1 X115.58 Y29.83 E17.07646
G1 X114.431 Y28.681 E17.13051
G1 X114.053 Y27.389 E17.17528
G0 F6000 X114.47 Y27.389
G1 F1200 X114.797 Y26.269 E17.21409
G1 X115.712 Y25.305 E17.25829
G1 X116.874 Y24.979 E17.29844
G1 X118.036 Y25.305 E17.33858
G1 X118.951 Y26.269 E17.38278
G1 X119.28 Y27.4 E17.42196
G1 X118.948 Y28.587 E17.46295
G1 X118.072 Y29.463 E17.50416
G1 X116.886 Y29.795 E17.54512
G1 X115.788 Y29.474 E17.58317
G1 X114.788 Y28.474 E17.63021
G1 X114.47 Y27.389 E17.66781
G0 F6000 X114.887 Y27.389
G1 F1200 X115.153 Y26.477 E17.69941
G1 X115.928 Y25.66 E17.73686
G1 X116.874 Y25.395 E17.76954
G1 X117.82 Y25.66 E17.80221
G1 X118.595 Y26.477 E17.83967
G1 X118.864 Y27.403 E17.87174
G1 X118.592 Y28.377 E17.90537
G1 X117.862 Y29.107 E17.93971
G1 X116.89 Y29.379 E17.97328
G1 X115.999 Y29.119 E18.00415
G1 X115.143 Y28.263 E18.04442
G1 X114.887 Y27.389 E18.07471
G0 F6000 X115.304 Y27.389
G1 F1200 X115.51 Y26.681 E18.09923
G1 X116.14 Y26.017 E18.12968
G1 X116.874 Y25.811 E18.15503
G1 X117.608 Y26.017 E18.18039
G1 X118.238 Y26.681 E18.21083
G1 X118.449 Y27.405 E18.23591
G1 X118.235 Y28.168 E18.26227
G1 X117.653 Y28.75 E18.28965
G1 X116.893 Y28.963 E18.3159
G1 X116.21 Y28.764 E18.33956
G1 X115.498 Y28.052 E18.37305
G1 X115.304 Y27.389 E18.39602
G0 F6000 X115.721 Y27.388
G1 F1200 X115.868 Y26.885 E18.41345
G1 X116.354 Y26.372 E18.43696
G1 X116.874 Y26.226 E18.45492
G1 X117.394 Y26.372 E18.47289
G1 X117.879 Y26.884 E18.49634
G1 X118.032 Y27.409 E18.51453
G1 X117.879 Y27.958 E18.53349
G1 X117.443 Y28.394 E18.55399
G1 X116.895 Y28.547 E18.57292
G1 X116.42 Y28.408 E18.58938
G1 X115.853 Y27.841 E18.61605
G1 X115.721 Y27.388 E18.63174
G0 F6000 X116.137 Y27.387
;TYPE:SUPPORT
G1 F1200 X116.224 Y27.092 E18.64197
G1 X116.57 Y26.728 E18.65868
G1 X116.874 Y26.643 E18.66917
G1 X117.179 Y26.728 E18.67971
G1 X117.522 Y27.091 E18.69632
G1 X117.616 Y27.409 E18.70735
G1 X117.52 Y27.749 E18.7191
G1 X117.234 Y28.036 E18.73257
G1 X116.896 Y28.13 E18.74424
G1 X116.632 Y28.053 E18.75339
G1 X116.208 Y27.629 E18.77333
G1 X116.137 Y27.387 E18.78172
G1 F2700 E13.78172
;MESH:silla.stl
G0 F6000 X115.308 Y27.144
G0 X110.086 Y20.704
G0 X109.9 Y19.439
;TYPE:WALL-INNER
G1 F2700 E18.78172
G1 F1200 X109.9 Y13.639 E18.97463
G1 X104.1 Y13.639 E19.16754
G1 X104.1 Y19.439 E19.36045
G1 X109.9 Y19.439 E19.55335
G0 F6000 X110.3 Y19.839
;TYPE:WALL-OUTER
G1 F1200 X110.3 Y13.239 E19.77287
G1 X103.7 Y13.239 E19.99239
G1 X103.7 Y19.839 E20.2119
G1 X110.3 Y19.839 E20.43142
G0 F6000 X110.03 Y19.569
G0 X109.8 Y19.079
G0 X109.54 Y19.079
;TYPE:SKIN
G1 F1200 X104.46 Y19.079 E20.60038
G1 X104.46 Y13.999 E20.76934
G1 X109.54 Y13.999 E20.93831
G1 X109.54 Y19.079 E21.10727
G0 F6000 X109.8 Y19.079
G0 X109.8 Y14.304
G0 X109.339 Y14.304
G1 F1200 X109.234 Y14.199 E21.11221
G0 F6000 X108.668 Y14.199
G1 F1200 X109.339 Y14.869 E21.14374
G0 F6000 X109.339 Y15.435
G1 F1200 X108.103 Y14.199 E21.20188
G0 F6000 X107.537 Y14.199
G1 F1200 X109.339 Y16.001 E21.28664
G0 F6000 X109.339 Y16.566
G1 F1200 X106.971 Y14.199 E21.398
G0 F6000 X106.406 Y14.199
G1 F1200 X109.339 Y17.132 E21.53596
G0 F6000 X109.339 Y17.698
G1 F1200 X105.84 Y14.199 E21.70054
G0 F6000 X105.274 Y14.199
G1 F1200 X109.339 Y18.263 E21.89173
G0 F6000 X109.339 Y18.829
G1 F1200 X104.709 Y14.199 E22.10951
G0 F6000 X104.659 Y14.715
G1 F1200 X108.823 Y18.879 E22.30537
G0 F6000 X108.257 Y18.879
G1 F1200 X104.659 Y15.281 E22.47461
G0 F6000 X104.659 Y15.846
G1 F1200 X107.691 Y18.879 E22.61725
G0 F6000 X107.125 Y18.879
G1 F1200 X104.659 Y16.412 E22.73326
G0 F6000 X104.659 Y16.978
G1 F1200 X106.56 Y18.879 E22.82268
G0 F6000 X105.994 Y18.879
G1 F1200 X104.659 Y17.544 E22.88548
G0 F6000 X104.659 Y18.109
G1 F1200 X105.428 Y18.879 E22.92167
G0 F6000 X104.863 Y18.879
G1 F1200 X104.659 Y18.675 E22.93127
G1 F2700 E17.93127
G0 F6000 X104.2 Y18.675
G0 X104.272 Y19.267
G0 X109.9 Y19.619
G0 X109.9 Y20.704
G0 X109.9 Y33.374
G0 X109.9 Y40.439
;TYPE:WALL-INNER
G1 F2700 E22.93127
G1 F1200 X109.9 Y34.639 E23.12417
G1 X104.1 Y34.639 E23.31708
G1 X104.1 Y40.439 E23.50999
G1 X109.9 Y40.439 E23.7029
G0 F6000 X110.3 Y40.839
;TYPE:WALL-OUTER
G1 F1200 X110.3 Y34.239 E23.92242
G1 X103.7 Y34.239 E24.14193
G1 X103.7 Y40.839 E24.36145
G1 X110.3 Y40.839 E24.58097
G0 F6000 X110.03 Y40.569
G0 X109.8 Y40.079
G0 X109.54 Y40.079
;TYPE:SKIN
G1 F1200 X104.46 Y40.079 E24.74993
G1 X104.46 Y34.999 E24.91889
G1 X109.54 Y34.999 E25.08785
G1 X109.54 Y40.079 E25.25681
G0 F6000 X109.8 Y40.079
G0 X109.8 Y35.8
G0 X109.339 Y35.8
G1 F1200 X108.738 Y35.199 E25.28508
G0 F6000 X108.172 Y35.199
G1 F1200 X109.339 Y36.365 E25.33995
G0 F6000 X109.339 Y36.931
G1 F1200 X107.606 Y35.199 E25.42144
G0 F6000 X107.041 Y35.199
G1 F1200 X109.339 Y37.497 E25.52953
G0 F6000 X109.339 Y38.062
G1 F1200 X106.475 Y35.199 E25.66422
G0 F6000 X105.909 Y35.199
G1 F1200 X109.339 Y38.628 E25.82554
G0 F6000 X109.339 Y39.194
G1 F1200 X105.344 Y35.199 E26.01345
G0 F6000 X104.778 Y35.199
G1 F1200 X109.339 Y39.759 E26.22796
G0 F6000 X108.892 Y39.878
G1 F1200 X104.659 Y35.645 E26.42707
G0 F6000 X104.659 Y36.211
G1 F1200 X108.326 Y39.878 E26.59955
G0 F6000 X107.76 Y39.878
G1 F1200 X104.659 Y36.777 E26.74542
G0 F6000 X104.659 Y37.343
G1 F1200 X107.195 Y39.878 E26.86468
G0 F6000 X106.629 Y39.878
G1 F1200 X104.659 Y37.908 E26.95734
G0 F6000 X104.659 Y38.474
G1 F1200 X106.063 Y39.878 E27.02338
G0 F6000 X105.498 Y39.878
G1 F1200 X104.659 Y39.04 E27.06282
G0 F6000 X104.659 Y39.605
G1 F1200 X104.932 Y39.878 E27.07566
G1 F2700 E22.07566
G0 F6000 X104.932 Y40.339
G0 X110.08 Y40.439
G0 X111.165 Y40.439
G0 X123.835 Y40.439
G0 X125.1 Y40.439
;TYPE:WALL-INNER
G1 F2700 E27.07566
G1 F1200 X130.9 Y40.439 E27.26857
G1 X130.9 Y34.639 E27.46148
G1 X125.1 Y34.639 E27.65439
G1 X125.1 Y40.439 E27.8473
G0 F6000 X124.7 Y40.839
